X:1
T:Fair Lilies We Bring You
T:Fair Lilies We Bring You
T:James Henry Fillmore, Sr.
T:Palmer Hartsough, 1898
T:Public Domain Courtesy of the Cyber Hymnal™
T:Public Domain Courtesy of the Cyber Hymnal™
C:James Henry Fillmore, Sr.
Z:Public Domain
Z:Courtesy of the Cyber Hymnal™
%%score ( 1 2 ) ( 3 4 )
L:1/8
Q:1/4=95
M:6/8
K:F
V:1 treble 
V:2 treble 
V:3 bass 
V:4 bass 
V:1
 C | FAC FA[Bd] | [Ac]3 [FA]2 C | FAC FA[Bd] | [Ac]3 [FA]2 [Ac] | [GB][^FA][GB] [EG]2 c | %6
w: 1.~Fair|lil- ies, fair lil- ies we|bring you, The|pret- ty white lil- ies we|bring you; So|pure and so sweet, In|
w: 2.~Fair|lil- ies, fair lil- ies we|bring you, The|pret- ty white lil- ies we|bring you; So|dear and so true, We|
w: 3.~Fair|lil- ies, fair lil- ies we|bring you, The|pret- ty white lil- ies we|bring you; So|joy- ful to- day, In|
w: 4.~Fair|lil- ies, fair lil- ies we|bring you, The|pret- ty white lil- ies we|bring you; The|first of the year, So|
 [CA][=B,^G][CA] [CF]2 [FA] | [EG][FA][EG] [DF][CE][=B,D] | C3 !fermata!c2 C | FAC FA[Bd] | %10
w: beau- ty com- plete, The|bright Eas- ter lil- ies now|bloom- ing. O|hear what the lil- ies would|
w: bring them to you, The|bright Eas- ter lil- ies now|bloom- ing. O|hear what the lil- ies would|
w: love- ly ar- ray, The|bright Eas- ter lil- ies now|bloom- ing. O|hear what the lil- ies would|
w: full of good cheer, The|bright Eas- ter lil- ies now|bloom- ing. O|hear what the lil- ies would|
 [Ac]3 [FA]2 C | FAC FA[Bd] | [Ac]3 [FA]2 [Ac] | [GB][^FA][GB] [EG]2 c | [CA][=B,^G][CA] [CF]2 A | %15
w: tell you, The|pret- ty white lil- ies would|tell you; In|won- der- ful love, He|came from a- bove, The|
w: tell you, The|pret- ty white lil- ies would|tell you; He|suf- fered and died, For|us cru- ci- fied, The|
w: tell you, The|pret- ty white lil- ies would|tell you; He|rose from the grave, And|liv- eth to save, The|
w: tell you, The|pret- ty white lil- ies would|tell you; “We|rise from the tomb In|heav- en- ly bloom,” The|
 GDF ECc | F3- F2 |] %17
w: bright Eas- ter lil- ies would|tell. *|
w: bright Eas- ter lil- ies would|tell. *|
w: bright Eas- ter lil- ies would|tell. *|
w: bright Eas- ter lil- ies would|tell. *|
V:2
 x | x6 | x6 | x6 | x6 | x5 c | x6 | x6 | C3 x3 | x6 | x6 | x6 | x6 | x6 | x6 | x6 | x5 |] %17
V:3
 z | [F,A,]2 z [F,A,]2 z | F,3 C2 z | [F,A,]2 z [F,A,]2 z | F,3 C2 z | C,3 C2 z | F,3 A,2 z | %7
 G,3 G,2 F, | [C,E,]3- !fermata![C,E,]2 z | [F,A,]2 z [F,A,]2 z | F,3 C2 z | [F,A,]2 z [F,A,]2 z | %12
 F,3 C2 z | C,3 C2 z | F,3 A,2 z | [B,,B,]3 [C,G,]3 | [F,A,]3- [F,A,]2 |] %17
V:4
 x | x6 | x6 | x6 | x6 | x6 | x6 | x3 G,,3 | x6 | x6 | x6 | x6 | x6 | x6 | x6 | x6 | x5 |] %17

